resources/LUT/Ancient_Orange.cube
LUT_3D_SIZE 6
0.194324 0.012331 0.000000
0.330883 0.012331 0.000000
0.490752 0.012331 0.000000
0.648525 0.012331 0.000000
0.793864 0.012331 0.000000
0.919675 0.012331 0.000000
0.194324 0.135791 0.000000
0.330883 0.135791 0.000000
0.490752 0.149554 0.000000
0.648525 0.159223 0.000000
0.793864 0.163581 0.000000
0.919675 0.162821 0.000000
0.194324 0.313086 0.000000
0.344133 0.313086 0.000000
0.490752 0.313086 0.000000
0.648525 0.332810 0.000000
0.793864 0.341642 0.000000
0.919675 0.340035 0.000000
0.194324 0.508464 0.000000
0.353321 0.508464 0.000000
0.507394 0.508464 0.000000
0.648525 0.508464 0.000000
0.793864 0.521782 0.000000
0.919675 0.519465 0.000000
0.194324 0.703207 0.000000
0.357473 0.703207 0.000000
0.514770 0.703207 0.000000
0.658745 0.703207 0.000000
0.793864 0.703207 0.000000
0.919675 0.700145 0.000000
0.194324 0.881705 0.000000
0.356737 0.881705 0.000000
0.513427 0.881705 0.000000
0.656997 0.881705 0.000000
0.791605 0.881705 0.000000
0.919675 0.881705 0.000000
0.194324 0.012331 0.003376
0.330883 0.012331 0.003376
0.490752 0.012331 0.005005
0.648525 0.012331 0.006473
0.793864 0.012331 0.007232
0.919675 0.012331 0.007096
0.194324 0.135791 0.003376
0.330883 0.135791 0.003376
0.490752 0.135791 0.003376
0.648525 0.135791 0.003376
0.793864 0.135791 0.003376
0.919675 0.135791 0.003376
0.194324 0.313086 0.005005
0.330883 0.313086 0.003376
0.490752 0.313086 0.003376
0.648525 0.327201 0.003376
0.793864 0.333455 0.003376
0.919675 0.331423 0.003376
0.194324 0.508464 0.006473
0.330883 0.508464 0.003376
0.502672 0.508464 0.003376
0.648525 0.508464 0.003376
0.793864 0.518956 0.003376
0.919675 0.515582 0.003376
0.194324 0.703207 0.007232
0.330883 0.703207 0.003376
0.507950 0.703207 0.003376
0.656596 0.703207 0.003376
0.793864 0.703207 0.003376
0.919675 0.698602 0.003376
0.194324 0.881705 0.007096
0.330883 0.881705 0.003376
0.506241 0.881705 0.003376
0.653976 0.881705 0.003376
0.790494 0.881705 0.003376
0.919675 0.881705 0.003376
0.194324 0.012331 0.087417
0.344133 0.012331 0.087417
0.490752 0.012331 0.087417
0.648525 0.012331 0.103689
0.793864 0.012331 0.111275
0.919675 0.012331 0.109886
0.194324 0.149554 0.087417
0.330883 0.135791 0.087417
0.490752 0.135791 0.087417
0.648525 0.135791 0.098996
0.793864 0.135791 0.104251
0.919675 0.135791 0.102535
0.194324 0.313086 0.087417
0.330883 0.313086 0.087417
0.490752 0.313086 0.087417
0.648525 0.313086 0.087417
0.793864 0.313086 0.087417
0.919675 0.313086 0.087417
0.194324 0.508464 0.103689
0.330883 0.508464 0.098996
0.490752 0.508464 0.087417
0.648525 0.508464 0.087417
0.793864 0.512180 0.087417
0.919675 0.507662 0.087417
0.194324 0.703207 0.111275
0.330883 0.703207 0.104251
0.490752 0.703207 0.087417
0.651354 0.703207 0.087417
0.793864 0.703207 0.087417
0.919675 0.695460 0.087417
0.194324 0.881705 0.109886
0.330883 0.881705 0.102535
0.490752 0.881705 0.087417
0.647861 0.881705 0.087417
0.788301 0.881705 0.087417
0.919675 0.881705 0.087417
0.194324 0.012331 0.281689
0.353321 0.012331 0.281689
0.507394 0.012331 0.281689
0.648525 0.012331 0.281689
0.793864 0.012331 0.297292
0.919675 0.012331 0.294516
0.194324 0.159223 0.281689
0.330883 0.135791 0.281689
0.502672 0.135791 0.281689
0.648525 0.135791 0.281689
0.793864 0.135791 0.293966
0.919675 0.135791 0.290001
0.194324 0.332810 0.281689
0.330883 0.327201 0.281689
0.490752 0.313086 0.281689
0.648525 0.313086 0.281689
0.793864 0.313086 0.286052
0.919675 0.313086 0.280764
0.194324 0.508464 0.281689
0.330883 0.508464 0.281689
0.490752 0.508464 0.281689
0.648525 0.508464 0.281689
0.793864 0.508464 0.281689
0.919675 0.508464 0.281689
0.194324 0.703207 0.297292
0.330883 0.703207 0.293966
0.490752 0.703207 0.286052
0.648525 0.703207 0.281689
0.793864 0.703207 0.281689
0.919675 0.695712 0.281689
0.194324 0.881705 0.294516
0.330883 0.881705 0.290001
0.490752 0.881705 0.280764
0.648525 0.881705 0.281689
0.788432 0.881705 0.281689
0.919675 0.881705 0.281689
0.194324 0.012331 0.533310
0.357473 0.012331 0.533310
0.514770 0.012331 0.533310
0.658745 0.012331 0.533310
0.793864 0.012331 0.533310
0.919675 0.012331 0.529012
0.194324 0.163581 0.533310
0.330883 0.135791 0.533310
0.507950 0.135791 0.533310
0.656596 0.135791 0.533310
0.793864 0.135791 0.533310
0.919675 0.135791 0.526796
0.194324 0.341642 0.533310
0.330883 0.333455 0.533310
0.490752 0.313086 0.533310
0.651354 0.313086 0.533310
0.793864 0.313086 0.533310
0.919675 0.313086 0.522404
0.194324 0.521782 0.533310
0.330883 0.518956 0.533310
0.490752 0.512180 0.533310
0.648525 0.508464 0.533310
0.793864 0.508464 0.533310
0.919675 0.508464 0.522791
0.194324 0.703207 0.533310
0.330883 0.703207 0.533310
0.490752 0.703207 0.533310
0.648525 0.703207 0.533310
0.793864 0.703207 0.533310
0.919675 0.703207 0.533310
0.194324 0.881705 0.529012
0.330883 0.881705 0.526796
0.490752 0.881705 0.522404
0.648525 0.881705 0.522791
0.793864 0.881705 0.533310
0.919675 0.881705 0.533310
0.194324 0.012331 0.803320
0.356737 0.012331 0.803320
0.513427 0.012331 0.803320
0.656997 0.012331 0.803320
0.791605 0.012331 0.803320
0.919675 0.012331 0.803320
0.194324 0.162821 0.803320
0.330883 0.135791 0.803320
0.506241 0.135791 0.803320
0.653976 0.135791 0.803320
0.790494 0.135791 0.803320
0.919675 0.135791 0.803320
0.194324 0.340035 0.803320
0.330883 0.331423 0.803320
0.490752 0.313086 0.803320
0.647861 0.313086 0.803320
0.788301 0.313086 0.803320
0.919675 0.313086 0.803320
0.194324 0.519465 0.803320
0.330883 0.515582 0.803320
0.490752 0.507662 0.803320
0.648525 0.508464 0.803320
0.788432 0.508464 0.803320
0.919675 0.508464 0.803320
0.194324 0.700145 0.803320
0.330883 0.698602 0.803320
0.490752 0.695460 0.803320
0.648525 0.695712 0.803320
0.793864 0.703207 0.803320
0.919675 0.703207 0.803320
0.194324 0.881705 0.803320
0.330883 0.881705 0.803320
0.490752 0.881705 0.803320
0.648525 0.881705 0.803320
0.793864 0.881705 0.803320
0.919675 0.881705 0.803320
