resources/LUT/Ancient_Orange.cube
LUT_3D_SIZE 16
0.194324 0.012331 0.000000
0.227322 0.012331 0.000000
0.278346 0.012331 0.000000
0.330883 0.012331 0.000000
0.383959 0.012331 0.000000
0.437387 0.012331 0.000000
0.490752 0.012331 0.000000
0.543874 0.012331 0.000000
0.596499 0.012331 0.000000
0.648525 0.012331 0.000000
0.698775 0.012331 0.000000
0.747400 0.012331 0.000000
0.793864 0.012331 0.000000
0.838372 0.012331 0.000000
0.880458 0.012331 0.000000
0.919675 0.012331 0.000000
0.194324 0.037619 0.000000
0.227322 0.037619 0.000000
0.278346 0.039455 0.000000
0.330883 0.041046 0.000000
0.383959 0.042505 0.000000
0.437387 0.043837 0.000000
0.490752 0.045048 0.000000
0.543874 0.046128 0.000000
0.596499 0.047077 0.000000
0.648525 0.047909 0.000000
0.698775 0.048524 0.000000
0.747400 0.048944 0.000000
0.793864 0.049192 0.000000
0.838372 0.049282 0.000000
0.880458 0.049219 0.000000
0.919675 0.048967 0.000000
0.194324 0.083286 0.000000
0.229547 0.083286 0.000000
0.278346 0.083286 0.000000
0.330883 0.086884 0.000000
0.383959 0.090172 0.000000
0.437387 0.093186 0.000000
0.490752 0.095892 0.000000
0.543874 0.098304 0.000000
0.596499 0.100423 0.000000
0.648525 0.102269 0.000000
0.698775 0.103639 0.000000
0.747400 0.104574 0.000000
0.793864 0.105114 0.000000
0.838372 0.105318 0.000000
0.880458 0.105179 0.000000
0.919675 0.104618 0.000000
0.194324 0.135791 0.000000
0.231433 0.135791 0.000000
0.282103 0.135791 0.000000
0.330883 0.135791 0.000000
0.383959 0.140820 0.000000
0.437387 0.145432 0.000000
0.490752 0.149554 0.000000
0.543874 0.153217 0.000000
0.596499 0.156423 0.000000
0.648525 0.159223 0.000000
0.698775 0.161324 0.000000
0.747400 0.162748 0.000000
0.793864 0.163581 0.000000
0.838372 0.163871 0.000000
0.880458 0.163665 0.000000
0.919675 0.162821 0.000000
0.194324 0.192024 0.000000
0.233182 0.192024 0.000000
0.285488 0.192024 0.000000
0.335752 0.192024 0.000000
0.383959 0.192024 0.000000
0.437387 0.198217 0.000000
0.490752 0.203748 0.000000
0.543874 0.208702 0.000000
0.596499 0.213020 0.000000
0.648525 0.216738 0.000000
0.698775 0.219567 0.000000
0.747400 0.221482 0.000000
0.793864 0.222596 0.000000
0.838372 0.222998 0.000000
0.880458 0.222705 0.000000
0.919675 0.221568 0.000000
0.194324 0.251323 0.000000
0.234764 0.251323 0.000000
0.288573 0.251323 0.000000
0.340174 0.251323 0.000000
0.389659 0.251323 0.000000
0.437387 0.251323 0.000000
0.490752 0.258298 0.000000
0.543874 0.264516 0.000000
0.596499 0.269925 0.000000
0.648525 0.274632 0.000000
0.698775 0.278147 0.000000
0.747400 0.280572 0.000000
0.793864 0.281955 0.000000
0.838372 0.282477 0.000000
0.880458 0.282118 0.000000
0.919675 0.280682 0.000000
0.194324 0.313086 0.000000
0.236180 0.313086 0.000000
0.291304 0.313086 0.000000
0.344133 0.313086 0.000000
0.394743 0.313086 0.000000
0.443520 0.313086 0.000000
0.490752 0.313086 0.000000
0.543874 0.320561 0.000000
0.596499 0.327080 0.000000
0.648525 0.332810 0.000000
0.698775 0.337034 0.000000
0.747400 0.339937 0.000000
0.793864 0.341642 0.000000
0.838372 0.342262 0.000000
0.880458 0.341779 0.000000
0.919675 0.340035 0.000000
0.194324 0.376858 0.000000
0.237451 0.376858 0.000000
0.293764 0.376858 0.000000
0.347638 0.376858 0.000000
0.399255 0.376858 0.000000
0.448966 0.376858 0.000000
0.497086 0.376858 0.000000
0.543874 0.376858 0.000000
0.596499 0.384467 0.000000
0.648525 0.391169 0.000000
0.698775 0.396131 0.000000
0.747400 0.399469 0.000000
0.793864 0.401476 0.000000
0.838372 0.402218 0.000000
0.880458 0.401664 0.000000
0.919675 0.399699 0.000000
0.194324 0.442083 0.000000
0.238553 0.442083 0.000000
0.295910 0.442083 0.000000
0.350679 0.442083 0.000000
0.403158 0.442083 0.000000
0.453685 0.442083 0.000000
0.502588 0.442083 0.000000
0.550119 0.442083 0.000000
0.596499 0.442083 0.000000
0.648525 0.449694 0.000000
0.698775 0.455434 0.000000
0.747400 0.459310 0.000000
0.793864 0.461571 0.000000
0.838372 0.462398 0.000000
0.880458 0.461793 0.000000
0.919675 0.459472 0.000000
0.194324 0.508464 0.000000
0.239520 0.508464 0.000000
0.297769 0.508464 0.000000
0.353321 0.508464 0.000000
0.406502 0.508464 0.000000
0.457781 0.508464 0.000000
0.507394 0.508464 0.000000
0.555592 0.508464 0.000000
0.602533 0.508464 0.000000
0.648525 0.508464 0.000000
0.698775 0.514889 0.000000
0.747400 0.519242 0.000000
0.793864 0.521782 0.000000
0.838372 0.522755 0.000000
0.880458 0.522095 0.000000
0.919675 0.519465 0.000000
0.194324 0.574423 0.000000
0.240235 0.574423 0.000000
0.299141 0.574423 0.000000
0.355330 0.574423 0.000000
0.409108 0.574423 0.000000
0.460814 0.574423 0.000000
0.510943 0.574423 0.000000
0.559604 0.574423 0.000000
0.607060 0.574423 0.000000
0.653448 0.574423 0.000000
0.698775 0.574423 0.000000
0.747400 0.579316 0.000000
0.793864 0.582160 0.000000
0.838372 0.583184 0.000000
0.880458 0.582394 0.000000
0.919675 0.579526 0.000000
0.194324 0.639530 0.000000
0.240724 0.639530 0.000000
0.300078 0.639530 0.000000
0.356658 0.639530 0.000000
0.410801 0.639530 0.000000
0.462919 0.639530 0.000000
0.513363 0.639530 0.000000
0.562314 0.639530 0.000000
0.610135 0.639530 0.000000
0.656795 0.639530 0.000000
0.702490 0.639530 0.000000
0.747400 0.639530 0.000000
0.793864 0.642732 0.000000
0.838372 0.643920 0.000000
0.880458 0.642951 0.000000
0.919675 0.639797 0.000000
0.194324 0.703207 0.000000
0.241013 0.703207 0.000000
0.300616 0.703207 0.000000
0.357473 0.703207 0.000000
0.411808 0.703207 0.000000
0.464124 0.703207 0.000000
0.514770 0.703207 0.000000
0.563946 0.703207 0.000000
0.611900 0.703207 0.000000
0.658745 0.703207 0.000000
0.704631 0.703207 0.000000
0.749711 0.703207 0.000000
0.793864 0.703207 0.000000
0.838372 0.704563 0.000000
0.880458 0.703614 0.000000
0.919675 0.700145 0.000000
0.194324 0.765413 0.000000
0.241115 0.765413 0.000000
0.300813 0.765413 0.000000
0.357753 0.765413 0.000000
0.412205 0.765413 0.000000
0.464545 0.765413 0.000000
0.515292 0.765413 0.000000
0.564527 0.765413 0.000000
0.612552 0.765413 0.000000
0.659494 0.765413 0.000000
0.705452 0.765413 0.000000
0.750586 0.765413 0.000000
0.794838 0.765413 0.000000
0.838372 0.765413 0.000000
0.880458 0.764457 0.000000
0.919675 0.760635 0.000000
0.194324 0.825121 0.000000
0.241039 0.825121 0.000000
0.300670 0.825121 0.000000
0.357510 0.825121 0.000000
0.411919 0.825121 0.000000
0.464261 0.825121 0.000000
0.514881 0.825121 0.000000
0.564107 0.825121 0.000000
0.612084 0.825121 0.000000
0.658998 0.825121 0.000000
0.704803 0.825121 0.000000
0.749918 0.825121 0.000000
0.794190 0.825121 0.000000
0.837740 0.825121 0.000000
0.880458 0.825121 0.000000
0.919675 0.821079 0.000000
0.194324 0.881705 0.000000
0.240748 0.881705 0.000000
0.300143 0.881705 0.000000
0.356737 0.881705 0.000000
0.410918 0.881705 0.000000
0.463012 0.881705 0.000000
0.513427 0.881705 0.000000
0.562495 0.881705 0.000000
0.610287 0.881705 0.000000
0.656997 0.881705 0.000000
0.702685 0.881705 0.000000
0.747627 0.881705 0.000000
0.791605 0.881705 0.000000
0.835057 0.881705 0.000000
0.877581 0.881705 0.000000
0.919675 0.881705 0.000000
0.194324 0.012331 0.000000
0.227322 0.012331 0.000000
0.278346 0.012331 0.000000
0.330883 0.012331 0.000000
0.383959 0.012331 0.000000
0.437387 0.012331 0.000000
0.490752 0.012331 0.000000
0.543874 0.012331 0.000000
0.596499 0.012331 0.000000
0.648525 0.012331 0.000000
0.698775 0.012331 0.000073
0.747400 0.012331 0.000073
0.793864 0.012331 0.000073
0.838372 0.012331 0.000073
0.880458 0.012331 0.000073
0.919675 0.012331 0.000073
0.194324 0.037619 0.000000
0.227322 0.037619 0.000000
0.278346 0.037619 0.000000
0.330883 0.037619 0.000000
0.383959 0.037619 0.000000
0.437387 0.037619 0.000000
0.490752 0.037619 0.000000
0.543874 0.037619 0.000000
0.596499 0.037619 0.000000
0.648525 0.037619 0.000000
0.698775 0.037619 0.000000
0.747400 0.037619 0.000000
0.793864 0.037619 0.000000
0.838372 0.037619 0.000000
0.880458 0.037619 0.000000
0.919675 0.037619 0.000000
0.194324 0.083286 0.000000
0.227322 0.083286 0.000000
0.278346 0.083286 0.000000
0.330883 0.085949 0.000000
0.383959 0.088515 0.000000
0.437387 0.090946 0.000000
0.490752 0.093150 0.000000
0.543874 0.095154 0.000000
0.596499 0.096919 0.000000
0.648525 0.098460 0.000000
0.698775 0.099601 0.000000
0.747400 0.100388 0.000000
0.793864 0.100851 0.000000
0.838372 0.101011 0.000000
0.880458 0.100882 0.000000
0.919675 0.100395 0.000000
0.194324 0.135791 0.000000
0.227322 0.135791 0.000000
0.281128 0.135791 0.000000
0.330883 0.135791 0.000000
0.383959 0.140242 0.000000
0.437387 0.144410 0.000000
0.490752 0.148183 0.000000
0.543874 0.151585 0.000000
0.596499 0.154569 0.000000
0.648525 0.157186 0.000000
0.698775 0.159121 0.000000
0.747400 0.160449 0.000000
0.793864 0.161229 0.000000
0.838372 0.161490 0.000000
0.880458 0.161264 0.000000
0.919675 0.160464 0.000000
0.194324 0.192024 0.000000
0.227322 0.192024 0.000000
0.283772 0.192024 0.000000
0.335171 0.192024 0.000000
0.383959 0.192024 0.000000
0.437387 0.197805 0.000000
0.490752 0.203058 0.000000
0.543874 0.207769 0.000000
0.596499 0.211871 0.000000
0.648525 0.215484 0.000000
0.698775 0.218192 0.000000
0.747400 0.220013 0.000000
0.793864 0.221066 0.000000
0.838372 0.221451 0.000000
0.880458 0.221168 0.000000
0.919675 0.220025 0.000000
0.194324 0.251323 0.000000
0.227322 0.251323 0.000000
0.286266 0.251323 0.000000
0.339180 0.251323 0.000000
0.389314 0.251323 0.000000
0.437387 0.251323 0.000000
0.490752 0.257995 0.000000
0.543874 0.263972 0.000000
0.596499 0.269229 0.000000
0.648525 0.273827 0.000000
0.698775 0.277237 0.000000
0.747400 0.279561 0.000000
0.793864 0.280915 0.000000
0.838372 0.281374 0.000000
0.880458 0.281013 0.000000
0.919675 0.279597 0.000000
0.194324 0.313086 0.000000
0.227322 0.313086 0.000000
0.288538 0.313086 0.000000
0.342808 0.313086 0.000000
0.394109 0.313086 0.000000
0.443263 0.313086 0.000000
0.490752 0.313086 0.000000
0.543874 0.320357 0.000000
0.596499 0.326699 0.000000
0.648525 0.332264 0.000000
0.698775 0.336380 0.000000
0.747400 0.339221 0.000000
0.793864 0.340837 0.000000
0.838372 0.341443 0.000000
0.880458 0.340964 0.000000
0.919675 0.339257 0.000000
0.194324 0.376858 0.000000
0.227322 0.376858 0.000000
0.290570 0.376858 0.000000
0.346064 0.376858 0.000000
0.398427 0.376858 0.000000
0.448494 0.376858 0.000000
0.496888 0.376858 0.000000
0.543874 0.376858 0.000000
0.596499 0.384312 0.000000
0.648525 0.390841 0.000000
0.698775 0.395765 0.000000
0.747400 0.399075 0.000000
0.793864 0.400908 0.000000
0.838372 0.401556 0.000000
0.880458 0.401062 0.000000
0.919675 0.399089 0.000000
0.194324 0.442083 0.000000
0.227322 0.442083 0.000000
0.292348 0.442083 0.000000
0.348930 0.442083 0.000000
0.402114 0.442083 0.000000
0.453082 0.442083 0.000000
0.502266 0.442083 0.000000
0.550002 0.442083 0.000000
0.596499 0.442083 0.000000
0.648525 0.449574 0.000000
0.698775 0.455170 0.000000
0.747400 0.458994 0.000000
0.793864 0.461187 0.000000
0.838372 0.461957 0.000000
0.880458 0.461331 0.000000
0.919675 0.459009 0.000000
0.194324 0.508464 0.000000
0.227322 0.508464 0.000000
0.293915 0.508464 0.000000
0.351406 0.508464 0.000000
0.405403 0.508464 0.000000
0.457077 0.508464 0.000000
0.506915 0.508464 0.000000
0.555285 0.508464 0.000000
0.602439 0.508464 0.000000
0.648525 0.508464 0.000000
0.698775 0.514712 0.000000
0.747400 0.519040 0.000000
0.793864 0.521573 0.000000
0.838372 0.522473 0.000000
0.880458 0.521682 0.000000
0.919675 0.519085 0.000000
0.194324 0.574423 0.000073
0.227322 0.574423 0.000000
0.295069 0.574423 0.000000
0.353235 0.574423 0.000000
0.407837 0.574423 0.000000
0.460034 0.574423 0.000000
0.510400 0.574423 0.000000
0.559331 0.574423 0.000000
0.606876 0.574423 0.000000
0.653353 0.574423 0.000000
0.698775 0.574423 0.000000
0.747400 0.579223 0.000000
0.793864 0.581980 0.000000
0.838372 0.582956 0.000000
0.880458 0.582174 0.000000
0.919675 0.579250 0.000000
0.194324 0.639530 0.000073
0.227322 0.639530 0.000000
0.295870 0.639530 0.000000
0.354496 0.639530 0.000000
0.409494 0.639530 0.000000
0.462050 0.639530 0.000000
0.512793 0.639530 0.000000
0.561984 0.639530 0.000000
0.609865 0.639530 0.000000
0.656650 0.639530 0.000000
0.702470 0.639530 0.000000
0.747400 0.639530 0.000000
0.793864 0.642608 0.000000
0.838372 0.643693 0.000000
0.880458 0.642792 0.000000
0.919675 0.639635 0.000000
0.194324 0.703207 0.000073
0.227322 0.703207 0.000000
0.296341 0.703207 0.000000
0.355226 0.703207 0.000000
0.410463 0.703207 0.000000
0.463208 0.703207 0.000000
0.514113 0.703207 0.000000
0.563503 0.703207 0.000000
0.611609 0.703207 0.000000
0.658566 0.703207 0.000000
0.704528 0.703207 0.000000
0.749611 0.703207 0.000000
0.793864 0.703207 0.000000
0.838372 0.704443 0.000000
0.880458 0.703487 0.000000
0.919675 0.699950 0.000000
0.194324 0.765413 0.000073
0.227322 0.765412 0.000000
0.296489 0.765412 0.000000
0.355518 0.765412 0.000000
0.410789 0.765412 0.000000
0.463621 0.765412 0.000000
0.514597 0.765412 0.000000
0.564003 0.765412 0.000000
0.612208 0.765412 0.000000
0.659229 0.765412 0.000000
0.705327 0.765412 0.000000
0.750401 0.765412 0.000000
0.794773 0.765412 0.000000
0.838372 0.765412 0.000000
0.880458 0.764383 0.000000
0.919675 0.760526 0.000000
0.194324 0.825121 0.000073
0.227322 0.825121 0.000000
0.296366 0.825121 0.000000
0.355266 0.825121 0.000000
0.410551 0.825121 0.000000
0.463297 0.825121 0.000000
0.514214 0.825121 0.000000
0.563617 0.825121 0.000000
0.611731 0.825121 0.000000
0.658707 0.825121 0.000000
0.704644 0.825121 0.000000
0.749788 0.825121 0.000000
0.794093 0.825121 0.000000
0.837684 0.825121 0.000000
0.880458 0.825121 0.000000
0.919675 0.821012 0.000000
0.194324 0.881705 0.000073
0.227322 0.881705 0.000000
0.295878 0.881705 0.000000
0.354502 0.881705 0.000000
0.409506 0.881705 0.000000
0.462068 0.881705 0.000000
0.512761 0.881705 0.000000
0.562009 0.881705 0.000000
0.609913 0.881705 0.000000
0.656678 0.881705 0.000000
0.702495 0.881705 0.000000
0.747488 0.881705 0.000000
0.791547 0.881705 0.000000
0.834969 0.881705 0.000000
0.877531 0.881705 0.000000
0.919675 0.881705 0.000000
0.194324 0.012331 0.000478
0.229547 0.012331 0.000478
0.278346 0.012331 0.000478
0.330883 0.012331 0.000562
0.383959 0.012331 0.000655
0.437387 0.012331 0.000746
0.490752 0.012331 0.000835
0.543874 0.012331 0.000920
0.596499 0.012331 0.001002
0.648525 0.012331 0.001077
0.698775 0.012331 0.001136
0.747400 0.012331 0.001179
0.793864 0.012331 0.001203
0.838372 0.012331 0.001212
0.880458 0.012331 0.001205
0.919675 0.012331 0.001181
0.194324 0.039455 0.000478
0.227322 0.037619 0.000478
0.278346 0.037619 0.000478
0.330883 0.037619 0.000541
0.383959 0.037619 0.000608
0.437387 0.037619 0.000676
0.490752 0.037619 0.000746
0.543874 0.037619 0.000811
0.596499 0.037619 0.000870
0.648525 0.037619 0.000927
0.698775 0.037619 0.000970
0.747400 0.037619 0.001002
0.793864 0.037619 0.001020
0.838372 0.037619 0.001026
0.880458 0.037619 0.001020
0.919675 0.037619 0.001002
0.194324 0.083286 0.000478
0.227322 0.083286 0.000478
0.278346 0.083286 0.000478
0.330883 0.083286 0.000478
0.383959 0.083286 0.000478
0.437387 0.083286 0.000478
0.490752 0.083286 0.000478
0.543874 0.083286 0.000478
0.596499 0.083286 0.000478
0.648525 0.083286 0.000478
0.698775 0.083286 0.000478
0.747400 0.083286 0.000478
0.793864 0.083286 0.000478
0.838371 0.083286 0.000478
0.880458 0.083286 0.000478
0.919675 0.083286 0.000478
0.194324 0.135791 0.000562
0.227322 0.135791 0.000541
0.278346 0.135791 0.000478
0.330883 0.135791 0.000478
0.383959 0.138462 0.000478
0.437387 0.141080 0.000478
0.490752 0.143536 0.000478
0.543874 0.145804 0.000478
0.596499 0.147816 0.000478
0.648525 0.149597 0.000478
0.698775 0.150923 0.000478
0.747400 0.151830 0.000478
0.793864 0.152346 0.000478
0.838371 0.152517 0.000478
0.880458 0.152304 0.000478
0.919675 0.151691 0.000478
0.194324 0.192024 0.000655
0.227322 0.192024 0.000608
0.278346 0.192024 0.000478
0.333457 0.192024 0.000478
0.383959 0.192024 0.000478
0.437387 0.196527 0.000478
0.490752 0.200702 0.000478
0.543874 0.204515 0.000478
0.596499 0.207907 0.000478
0.648525 0.210901 0.000478
0.698775 0.213125 0.000478
0.747400 0.214617 0.000478
0.793864 0.215474 0.000478
0.838371 0.215767 0.000478
0.880458 0.215436 0.000478
0.919675 0.214419 0.000478
0.194324 0.251323 0.000746
0.227322 0.251323 0.000676
0.278346 0.251323 0.000478
0.335990 0.251323 0.000478
0.388105 0.251323 0.000478
0.437387 0.251323 0.000478
0.490752 0.257028 0.000478
0.543874 0.262206 0.000478
0.596499 0.266794 0.000478
0.648525 0.270877 0.000478
0.698775 0.273896 0.000478
0.747400 0.275935 0.000478
0.793864 0.277075 0.000478
0.838371 0.277423 0.000478
0.880458 0.277010 0.000478
0.919675 0.275645 0.000478
0.194324 0.313086 0.000835
0.227322 0.313086 0.000746
0.278346 0.313086 0.000478
0.338382 0.313086 0.000478
0.391923 0.313086 0.000478
0.442409 0.313086 0.000478
0.490752 0.313086 0.000478
0.543874 0.319562 0.000478
0.596499 0.325332 0.000478
0.648525 0.330387 0.000478
0.698775 0.334155 0.000478
0.747400 0.336689 0.000478
0.793864 0.338123 0.000478
0.838371 0.338573 0.000478
0.880458 0.338057 0.000478
0.919675 0.336294 0.000478
0.194324 0.376858 0.000920
0.227322 0.376858 0.000811
0.278346 0.376858 0.000478
0.340546 0.376858 0.000478
0.395450 0.376858 0.000478
0.446945 0.376858 0.000478
0.496231 0.376858 0.000478
0.543874 0.376858 0.000478
0.596499 0.383698 0.000478
0.648525 0.389715 0.000478
0.698775 0.394246 0.000478
0.747400 0.397271 0.000478
0.793864 0.398965 0.000478
0.838371 0.399430 0.000478
0.880458 0.398856 0.000478
0.919675 0.396791 0.000478
0.194324 0.442083 0.001002
0.227322 0.442083 0.000870
0.278346 0.442083 0.000478
0.342455 0.442083 0.000478
0.398510 0.442083 0.000478
0.450967 0.442083 0.000478
0.501087 0.442083 0.000478
0.549496 0.442083 0.000478
0.596499 0.442083 0.000478
0.648525 0.449098 0.000478
0.698775 0.454284 0.000478
0.747400 0.457791 0.000478
0.793864 0.459752 0.000478
0.838371 0.460380 0.000478
0.880458 0.459632 0.000478
0.919675 0.457275 0.000478
0.194324 0.508464 0.001077
0.227322 0.508464 0.000927
0.278346 0.508464 0.000478
0.344183 0.508464 0.000478
0.401222 0.508464 0.000478
0.454508 0.508464 0.000478
0.505351 0.508464 0.000478
0.554425 0.508464 0.000478
0.602079 0.508464 0.000478
0.648525 0.508464 0.000478
0.698775 0.514368 0.000478
0.747400 0.518310 0.000478
0.793864 0.520596 0.000478
0.838371 0.521296 0.000478
0.880458 0.520453 0.000478
0.919675 0.517771 0.000478
0.194324 0.574423 0.001136
0.227322 0.574423 0.000970
0.278346 0.574423 0.000478
0.345462 0.574423 0.000478
0.403277 0.574423 0.000478
0.457135 0.574423 0.000478
0.508512 0.574423 0.000478
0.558102 0.574423 0.000478
0.606167 0.574423 0.000478
0.653064 0.574423 0.000478
0.698775 0.574423 0.000478
0.747400 0.578872 0.000478
0.793864 0.581403 0.000478
0.838371 0.582194 0.000478
0.880458 0.581227 0.000478
0.919675 0.578233 0.000478
0.194324 0.639530 0.001179
0.227322 0.639530 0.001002
0.278346 0.639530 0.000478
0.346326 0.639530 0.000478
0.404630 0.639530 0.000478
0.458897 0.639530 0.000478
0.510639 0.639530 0.000478
0.560557 0.639530 0.000478
0.608913 0.639530 0.000478
0.656109 0.639530 0.000478
0.702115 0.639530 0.000478
0.747400 0.639530 0.000478
0.793864 0.642363 0.000478
0.838371 0.643244 0.000478
0.880458 0.642166 0.000478
0.919675 0.638824 0.000478
0.194324 0.703207 0.001203
0.227322 0.703207 0.001020
0.278346 0.703207 0.000478
0.346783 0.703207 0.000478
0.405394 0.703207 0.000478
0.459906 0.703207 0.000478
0.511851 0.703207 0.000478
0.561911 0.703207 0.000478
0.610479 0.703207 0.000478
0.657814 0.703207 0.000478
0.704142 0.703207 0.000478
0.749393 0.703207 0.000478
0.793864 0.703207 0.000478
0.838371 0.704209 0.000478
0.880458 0.703053 0.000478
0.919675 0.699476 0.000478
0.194324 0.765413 0.001212
0.227322 0.765412 0.001026
0.278346 0.765412 0.000478
0.346946 0.765412 0.000478
0.405623 0.765412 0.000478
0.460217 0.765412 0.000478
0.512203 0.765412 0.000478
0.562295 0.765412 0.000478
0.610989 0.765412 0.000478
0.658370 0.765412 0.000478
0.704662 0.765412 0.000478
0.750017 0.765412 0.000478
0.794506 0.765412 0.000478
0.838371 0.765412 0.000478
0.880458 0.764129 0.000478
0.919675 0.760197 0.000478
0.194324 0.825121 0.001205
0.227322 0.825121 0.001020
0.278346 0.825121 0.000478
0.346763 0.825121 0.000478
0.405360 0.825121 0.000478
0.459839 0.825121 0.000478
0.511776 0.825121 0.000478
0.561808 0.825121 0.000478
0.610405 0.825121 0.000478
0.657742 0.825121 0.000478
0.703994 0.825121 0.000478
0.749344 0.825121 0.000478
0.793694 0.825121 0.000478
0.837484 0.825121 0.000478
0.880458 0.825121 0.000478
0.919675 0.820834 0.000478
0.194324 0.881705 0.001181
0.227322 0.881705 0.001002
0.278346 0.881705 0.000478
0.346170 0.881705 0.000478
0.404430 0.881705 0.000478
0.458655 0.881705 0.000478
0.510291 0.881705 0.000478
0.560104 0.881705 0.000478
0.608516 0.881705 0.000478
0.655678 0.881705 0.000478
0.701679 0.881705 0.000478
0.746891 0.881705 0.000478
0.791090 0.881705 0.000478
0.834674 0.881705 0.000478
0.877450 0.881705 0.000478
0.919675 0.881705 0.000478
0.194324 0.012331 0.003376
0.231433 0.012331 0.003376
0.282103 0.012331 0.003376
0.330883 0.012331 0.003376
0.383959 0.012331 0.003914
0.437387 0.012331 0.004465
0.490752 0.012331 0.005005
0.543874 0.012331 0.005528
0.596499 0.012331 0.006019
0.648525 0.012331 0.006473
0.698775 0.012331 0.006832
0.747400 0.012331 0.007081
0.793864 0.012331 0.007232
0.838372 0.012331 0.007286
0.880458 0.012331 0.007249
0.919675 0.012331 0.007096
0.194324 0.041046 0.003376
0.227322 0.037619 0.003376
0.281128 0.037619 0.003376
0.330883 0.037619 0.003376
0.383959 0.037619 0.003849
0.437387 0.037619 0.004338
0.490752 0.037619 0.004822
0.543874 0.037619 0.005290
0.596499 0.037619 0.005729
0.648525 0.037619 0.006138
0.698775 0.037619 0.006455
0.747400 0.037619 0.006679
0.793864 0.037619 0.006815
0.838372 0.037619 0.006858
0.880458 0.037619 0.006820
0.919675 0.037619 0.006682
0.194324 0.086884 0.003376
0.227322 0.085949 0.003376
0.278346 0.083286 0.003376
0.330883 0.083286 0.003376
0.383959 0.083286 0.003654
0.437387 0.083286 0.003943
0.490752 0.083286 0.004232
0.543874 0.083286 0.004511
0.596499 0.083286 0.004771
0.648525 0.083286 0.005013
0.698775 0.083286 0.005197
0.747400 0.083286 0.005325
0.793864 0.083286 0.005400
0.838371 0.083286 0.005424
0.880458 0.083286 0.005395
0.919675 0.083286 0.005305
0.194324 0.135791 0.003376
0.227322 0.135791 0.003376
0.278346 0.135791 0.003376
0.330883 0.135791 0.003376
0.383959 0.135791 0.003376
0.437387 0.135791 0.003376
0.490752 0.135791 0.003376
0.543874 0.135791 0.003376
0.596499 0.135791 0.003376
0.648525 0.135791 0.003376
0.698775 0.135791 0.003376
0.747400 0.135791 0.003376
0.793864 0.135791 0.003376
0.838371 0.135791 0.003376
0.880458 0.135791 0.003376
0.919675 0.135791 0.003376
0.194324 0.192024 0.003914
0.227322 0.192024 0.003849
0.278346 0.192024 0.003654
0.330883 0.192024 0.003376
0.383959 0.192024 0.003376
0.437387 0.194507 0.003376
0.490752 0.196923 0.003376
0.543874 0.199136 0.003376
0.596499 0.201159 0.003376
0.648525 0.202969 0.003376
0.698775 0.204301 0.003376
0.747400 0.205203 0.003376
0.793864 0.205644 0.003376
0.838371 0.205779 0.003376
0.880458 0.205501 0.003376
0.919675 0.204798 0.003376
0.194324 0.251323 0.004465
0.227322 0.251323 0.004338
0.278346 0.251323 0.003943
0.330883 0.251323 0.003376
0.386263 0.251323 0.003376
0.437387 0.251323 0.003376
0.490752 0.255461 0.003376
0.543874 0.259323 0.003376
0.596499 0.262781 0.003376
0.648525 0.265885 0.003376
0.698775 0.268153 0.003376
0.747400 0.269667 0.003376
0.793864 0.270477 0.003376
0.838371 0.270660 0.003376
0.880458 0.270218 0.003376
0.919675 0.268974 0.003376
0.194324 0.313086 0.005005
0.227322 0.313086 0.004822
0.278346 0.313086 0.004232
0.330883 0.313086 0.003376
0.388492 0.313086 0.003376
0.441046 0.313086 0.003376
0.490752 0.313086 0.003376
0.543874 0.318339 0.003376
0.596499 0.323040 0.003376
0.648525 0.327201 0.003376
0.698775 0.330302 0.003376
0.747400 0.332330 0.003376
0.793864 0.333455 0.003376
0.838371 0.333687 0.003376
0.880458 0.333078 0.003376
0.919675 0.331423 0.003376
0.194324 0.376858 0.005528
0.227322 0.376858 0.005290
0.278346 0.376858 0.004511
0.330883 0.376858 0.003376
0.390507 0.376858 0.003376
0.444438 0.376858 0.003376
0.495205 0.376858 0.003376
0.543874 0.376858 0.003376
